assets/icons/qvision/sync_disabled.svg

<svg width="24" height="24" viewBox="0 0 24 24" fill="none" xmlns="http://www.w3.org/2000/svg">
<g clip-path="url(#clip0_147_6044)">
<path d="M9.99986 6.35V4.26C9.19986 4.47 8.44986 4.8 7.76986 5.22L9.22986 6.68C9.47986 6.56 9.72986 6.44 9.99986 6.35ZM2.85986 5.41L5.21986 7.77C4.44986 8.99 3.99986 10.44 3.99986 12C3.99986 14.21 4.90986 16.2 6.35986 17.64L3.99986 20H9.99986V14L7.75986 16.24C6.67986 15.15 5.99986 13.66 5.99986 12C5.99986 11 6.24986 10.06 6.67986 9.23L14.7599 17.31C14.5099 17.44 14.2599 17.56 13.9899 17.65V19.74C14.7899 19.53 15.5399 19.2 16.2199 18.78L18.5799 21.14L19.8499 19.87L4.13986 4.14L2.85986 5.41ZM19.9999 4H13.9999V10L16.2399 7.76C17.3199 8.85 17.9999 10.34 17.9999 12C17.9999 13 17.7499 13.94 17.3199 14.77L18.7799 16.23C19.5499 15.01 19.9999 13.56 19.9999 12C19.9999 9.79 19.0899 7.8 17.6399 6.36L19.9999 4Z" fill="#323232"/>
</g>
<defs>
<clipPath id="clip0_147_6044">
<rect width="24" height="24" fill="white"/>
</clipPath>
</defs>
</svg>

<svg xmlns="http://www.w3.org/2000/svg" height="24" viewBox="0 0 24 24" width="24"><path d="M0 0h24v24H0zm0 0h24v24H0z" fill="none"/><path d="M10 6.35V4.26c-.8.21-1.55.54-2.23.96l1.46 1.46c.25-.12.5-.24.77-.33zm-7.14-.94l2.36 2.36C4.45 8.99 4 10.44 4 12c0 2.21.91 4.2 2.36 5.64L4 20h6v-6l-2.24 2.24C6.68 15.15 6 13.66 6 12c0-1 .25-1.94.68-2.77l8.08 8.08c-.25.13-.5.25-.77.34v2.09c.8-.21 1.55-.54 2.23-.96l2.36 2.36 1.27-1.27L4.14 4.14 2.86 5.41zM20 4h-6v6l2.24-2.24C17.32 8.85 18 10.34 18 12c0 1-.25 1.94-.68 2.77l1.46 1.46C19.55 15.01 20 13.56 20 12c0-2.21-.91-4.2-2.36-5.64L20 4z"/></svg>
